artwork/resources/intui/icons/shell/tool-windows/emulator@20x20_dark.svg

<svg width="20" height="20" viewBox="0 0 20 20" fill="none" xmlns="http://www.w3.org/2000/svg">
<mask id="path-1-inside-1_3575_1554" fill="white">
<rect x="7" y="9" width="11" height="6" rx="0.5"/>
</mask>
<rect x="7" y="9" width="11" height="6" rx="0.5" stroke="#CED0D6" stroke-width="3" mask="url(#path-1-inside-1_3575_1554)"/>
<path d="M7.5 17.25H17.5" stroke="#CED0D6" stroke-width="1.5" stroke-linecap="round"/>
<path fill-rule="evenodd" clip-rule="evenodd" d="M6 4.75C5.58579 4.75 5.25 5.08579 5.25 5.5C5.25 5.91421 5.58579 6.25 6 6.25H7.5H9C9.41421 6.25 9.75 5.91421 9.75 5.5C9.75 5.08579 9.41421 4.75 9 4.75H7.5H6ZM11.5 7.5V4C11.5 3.72386 11.2761 3.5 11 3.5H4C3.72386 3.5 3.5 3.72386 3.5 4V16C3.5 16.2761 3.72386 16.5 4 16.5H5.5V18H4C2.89543 18 2 17.1046 2 16V4C2 2.89543 2.89543 2 4 2H11C12.1046 2 13 2.89543 13 4V7.5H11.5Z" fill="#CED0D6"/>
</svg>

<svg width="20" height="20" viewBox="0 0 20 20" fill="none" xmlns="http://www.w3.org/2000/svg"><mask id="a" fill="#fff"><rect x="7" y="9" width="11" height="6" rx=".5"/></mask><rect x="7" y="9" width="11" height="6" rx=".5" stroke="#CED0D6" stroke-width="3" mask="url(#a)"/><path d="M7.5 17.25h10" stroke="#CED0D6" stroke-width="1.5" stroke-linecap="round"/><path fill-rule="evenodd" clip-rule="evenodd" d="M6 4.75a.75.75 0 0 0 0 1.5h3a.75.75 0 0 0 0-1.5H6zm5.5 2.75V4a.5.5 0 0 0-.5-.5H4a.5.5 0 0 0-.5.5v12a.5.5 0 0 0 .5.5h1.5V18H4a2 2 0 0 1-2-2V4a2 2 0 0 1 2-2h7a2 2 0 0 1 2 2v3.5h-1.5z" fill="#CED0D6"/></svg>
